X:1
T:Ho Guro
T:Ho Guro
T:Halvdan Kjerulf
T:Norsk folkevise
C:Halvdan Kjerulf
Z:Norsk folkevise
%%score [ 1 2 3 ( 4 5 ) ]
L:1/8
Q:1/4=140
M:2/4
K:Bb
V:1 treble-8 nm="T1"
V:2 treble-8 nm="T2"
V:3 bass nm="B1"
V:4 bass nm="B2"
V:5 bass 
V:1
"^Vivace" z4 | z4 | z4 | z2 z F | F F F A | c2 B d | d2 c A | c2 B G | F2 (FA) | c2 (B d) | %10
w: |||1.O|kjen- nø du ho|Gu- ro, den|ly- sti- gø|Kvin- nø? ho|kun- na *|ba- ka, *|
w: |||2.Ho|kun- * na so|lett paa *|Skji- o *|ren- nø, ret|so dei *|Ka- ra, so|
 d2 c A | c2 B z |!mf! A2 A c | e2 (df) | f2 e c | e2 d B | A2 (Ac) | e2 (df) | f2 e c | e2 d z | %20
w: ve- va o|spin- nø,|frisk, so sin|Kar, ho *|san- nø- le|føl- dø, ho|va i *|Fæ- res *|Ve- ge o|kjø- dø,|
w: in- kji æ|sei- nø,|flink, so ein|Kar ho *|va ut i|Stak- ken, ho|kun- na *|kjøy- rø *|Las- sø i|Bak- kjin,|
!p! .B .c .d .e | f2 f d | f2 f g | f2 e2 | d2 e d | c2 (d d) | B2 B c | A2 B z | %28
w: ho va in- kji|bang' i før|stan- de paa|Mei- a,|ho kun- na|se- la *|Mær- ræ si|e- ja!|
w: ho kunn' gje- ra|Hest- Sko o|Sle- a, so|ny- e,|ho kun- na|kjyp- pø si|Trø- jø taa|Ty- e!|
!mf! B!<(! c d e!<)! | f2 f d | f2 f g | f2 e2 | d2 e d |!>(! c2 (c c)!>)! | B2 B c | A2 B z :| %36
w: ho va in- kji|bang' i før|stan- de paa|Mei- a,|ho kun- na|sæ- la *|Mar- re si|e- ja!|
w: ho kunn' gje- ra|Hest- Sko o|Sle- a, so|ny- e,|ho kun- na|kjyp- pø si|Trø- jø taa|Ty- e!|
"^Coda" z4 | z4 | z4 | z4 |] %40
w: ||||
w: ||||
V:2
!p! e2 e2 | d4 | e4 | d2 d2 | e2!p! e2 | d4 | e4 | d2 d2 | e4 | d4 | e2 e2 | d2 d z |!mf! F2 F A | %13
w: 1.Kjen- nø|du|ho|Gu- ro?|Kjen- nø|du|ho|Gu- ro,|den|ly-|sti- gø|Kvin- nø?|frisk, so sin|
w: 2.Kjen- nø|du|ho|Gu- ro?|Kjen- nø|du|ho|Gu- ro,|den|ly-|sti- gø|Kvin- nø?|flink, so ein|
 c2 (Bd) | d2 c A | c2 B F | F2 (FA) | c2 (Bd) | d2 c A | c2 B z |!p! .F .A .B .c | d2 d B | %22
w: Kar, ho *|san- nø- le|føl- dø, ho|va i *|Fæ- res *|Ve- ge o|kjø- dø,|ho va in- kji|bang' i før|
w: Kar, ho *|va ut- i|Stak- ken, ho|kun- na *|kjøy- rø *|Las- sø i|Bak- kjin,|ho kunn' gje- ra|Hest- Sko o|
 d2 d e | d2 c2 | B2 B B | A2 (A A) | B2 F G | F2 F z |!mf! D!<(! F B c!<)! | d2 d B | d2 d e | %31
w: stan- de paa|Mei- a,|ho kun- na|se- la *|Mær- ræ si|e- ja!|ho va in- kji|bang' i før|stan- de paa|
w: Sle- a, so|ny- e,|ho kun- na|klyp- pø si|Trø- jø taa|Ty- e!|ho kunn' gje- ra|Hest- Sko o|Sle- a, so|
 d2 c2 | B2 c B |!>(! A2 (A A)!>)! | G2 G G | (FE) D z :|!pp! e2 e2 | d4 |!>(! e4!>)! | %39
w: Mei- a,|ho kun- na|sæ- la *|Mær- re si|e- * ja!||||
w: ny- e,|ho kun- na|klyp- pø si|Trø- jø taa|Ty- * e!|Su lu|lu|lu|
 !fermata!d4 |] %40
w: |
w: lu|
V:3
!p! !>!A,2 !>!F,2- | F,2 !>!F,2- | F,2 F,2 | F,2 F,2 | A,2 !>!F,2- | F,2 !>!F,2- | F,2 F,2 | %7
w: 1.Kjen- nø|* du|* ho|Gu- ro?|Kjen- nø|* du|* ho|
w: 2.Kjen- nø|* du|* ho|Gu- ro?|Kjen- nø|* du|* ho|
 F,2 F,2 | (A,2 F,2- | F,2) !>!F,2- | F,2 F, F, | F,2 F, z |!mf! F,2 F, F, | F,2 F,2 | F,G, A, F, | %15
w: Gu- ro,|den *|* ly-|* sti- gø|Kvin- nø?|frisk, so sin|Kar, ho|san- * nø- le|
w: Gu- ro,|den *|* ly-|* sti- gø|Kvin- nø?|flink so ein|Kar, ho|va * ut- i|
 B,2 B, F, | F,2 F,2 | F,2 F,2 | F,G, A, F, | F,2 F, z |!p! .D, .F, .B, .B, | B,2 B, D | %22
w: føl- dø, ho|va i|Fæ- res|Ve- * ge o|kjø- dø,|ho va in- kji|bang' i før|
w: Stak- ken, ho|kun- na|kjøy- rø|Las- * sø i|Bak- kjin,|ho kunn' gje- ra|Hest- Sko o|
 B,2 B, B, | B,2 B,2 | (B,A,) G, F, | F,2 (F, F,) | F,2 F, E, | E,2 D, z | %28
w: stan- de paa|Mei- a,|ho * kun- na|se- la *|Mær- ræ si|e- ja!|
w: Sle- a, so|ny- e,|ho * kun- na|klyp- pø si|Trø- jø taa|Ty- e!|
!mf! F,!<(! F, F, F,!<)! | F,2 B, B, | B,2 =B, B, | G,2 G,2 | G,2 G, G, |!>(! F,2 (^F, F,)!>)! | %34
w: ho va in- kji|bang' i før|stan- de paa|Mei- a,|ho kun- na|sæ- la *|
w: ho kunn' gje- ra|Hest- Sko o|Sle- a, so|ny- e,|ho kun- na|klyp- pø si|
 G,2 G, E, | F,2 F, z :|!pp! A,2 !>!F,2- | F,2 !>!F,2- | F,2 !>!F,2- | F,2 !fermata!F,2 |] %40
w: Mær- re si|e- ja!|||||
w: Trø- jø taa|Ty- e!|Su lu|* lu|* lu|* lu!|
V:4
!p! !>!B,,2 !>!B,,2- | B,,2 !>!B,,2- | B,,2 B,,2 | B,,2 B,,2 | D,2 !>!B,,2- | B,,2 !>!B,,2- | %6
w: 1.Kjen- nø|* du|* ho|Gu- ro?|Kjen- nø|* du|
w: 2.Kjen- nø|* du|* ho|Gu- ro?|Kjen- nø|* du|
 B,,2 B,,2 | B,,2 B,,2 | (B,,4 | B,,2) !>!B,,2- | B,,2 B,, B,, | B,,2 B,, z |!mf! F,2 F, F, | %13
w: * ho|Gu- ro,|den|* ly-|* sti- gø|Kvin- nø?|frisk, so sin|
w: * ho|Gu- ro,|den|* ly-|* sti- gø|Kvin- nø?|flink so ein|
 (B,,C,) (D,B,,) | F,2 F, F, | B,,2 B,, D, | F,2 F,2 | (B,,C,) (D,B,,) | F,2 F, F, | B,,2 B,, z | %20
w: Kar, * ho *|san- nø- le|føl- dø, ho|va i|Fæ- * res *|Ve- gø o|kjø- dø,|
w: Kar, * ho *|va ut- i|Stak- ken, ho|kun- na|kjøy- * rø *|Las- sø i|Bak- kjin,|
!p! .D, .F, .B, .B, | B,2 B, B,, | B,2 B, E, | B,2 B,2 | (B,A,) G, F, | E,2 (F, F,) | D,2 D, E, | %27
w: ho va in- kji|bang' i før|stan- de paa|Mei- a,|ho * kun- na|se- la *|Mær- ræ si|
w: ho kunn' gje- ra|Hest- Sko o|Sle- a, so|ny- e,|ho * kun- na|klyp- pø si|Trø- jø taa|
 C,2 B,, z |!mf! B,,!<(! F, B,, F,!<)! | B,,2 B, B, | (B,_A,) G, G, | C,2 (C,E,) | G,2 E, =E, | %33
w: e- ja!|ho va in- kji|bang' i før|stan- * de paa|Mei- a, *|ho kun- na|
w: Ty- e!|ho kunn' gje- ra|Hest- Sko o|Sle- * a, so|ny- e, *|ho kunn- na|
!>(! F,_E, (D, D,)!>)! | E,2 E, C, | F,2 B,, z :|!pp! B,,2 !>!B,,2- | B,,2 !>!B,,2- | %38
w: sæ- * la *|Mær- re si|e- ja!|||
w: klyp- * pø si|Trø- jø taa|Ty- e!|Su lu|* lu|
 B,,2 !>!B,,2- | B,,2 !fermata!B,,2 |] %40
w: ||
w: * lu|* lu!|
V:5
 x4 | x4 | x4 | x4 | x4 | x4 | x4 | x4 | x4 | x4 | x4 | x4 | x4 | x4 | x4 | x4 | x4 | x4 | x4 | %19
 x4 | x4 | x4 | x4 | x4 | x4 | x4 | x4 | x4 | x4 | x4 | x4 | x4 | x4 | x4 | x4 | F,,2 B,, x :| x4 | %37
 x4 | x4 | x4 |] %40

